images/3232599.svg

<?xml version="1.0" encoding="UTF-8"?>
<svg xmlns="http://www.w3.org/2000/svg" xmlns:xlink="http://www.w3.org/1999/xlink" width="300pt" height="300pt" viewBox="0 0 300 300" version="1.1">
<defs>
<g>
<symbol overflow="visible" id="glyph0-0">
<path style="stroke:none;" d="M 0.59375 2.125 L 0.59375 -8.46875 L 6.59375 -8.46875 L 6.59375 2.125 Z M 1.265625 1.453125 L 5.9375 1.453125 L 5.9375 -7.78125 L 1.265625 -7.78125 Z M 1.265625 1.453125 "/>
</symbol>
<symbol overflow="visible" id="glyph0-1">
<path style="stroke:none;" d="M 4.734375 -7.953125 C 3.867188 -7.953125 3.179688 -7.628906 2.671875 -6.984375 C 2.171875 -6.347656 1.921875 -5.472656 1.921875 -4.359375 C 1.921875 -3.265625 2.171875 -2.394531 2.671875 -1.75 C 3.179688 -1.113281 3.867188 -0.796875 4.734375 -0.796875 C 5.585938 -0.796875 6.265625 -1.113281 6.765625 -1.75 C 7.273438 -2.394531 7.53125 -3.265625 7.53125 -4.359375 C 7.53125 -5.472656 7.273438 -6.347656 6.765625 -6.984375 C 6.265625 -7.628906 5.585938 -7.953125 4.734375 -7.953125 Z M 4.734375 -8.90625 C 5.953125 -8.90625 6.925781 -8.492188 7.65625 -7.671875 C 8.394531 -6.847656 8.765625 -5.742188 8.765625 -4.359375 C 8.765625 -2.984375 8.394531 -1.882812 7.65625 -1.0625 C 6.925781 -0.238281 5.953125 0.171875 4.734375 0.171875 C 3.503906 0.171875 2.519531 -0.238281 1.78125 -1.0625 C 1.039062 -1.882812 0.671875 -2.984375 0.671875 -4.359375 C 0.671875 -5.742188 1.039062 -6.847656 1.78125 -7.671875 C 2.519531 -8.492188 3.503906 -8.90625 4.734375 -8.90625 Z M 4.734375 -8.90625 "/>
</symbol>
<symbol overflow="visible" id="glyph0-2">
<path style="stroke:none;" d="M 1.171875 -8.75 L 2.765625 -8.75 L 6.65625 -1.4375 L 6.65625 -8.75 L 7.796875 -8.75 L 7.796875 0 L 6.203125 0 L 2.328125 -7.3125 L 2.328125 0 L 1.171875 0 Z M 1.171875 -8.75 "/>
</symbol>
<symbol overflow="visible" id="glyph0-3">
<path style="stroke:none;" d="M 1.171875 -8.75 L 2.359375 -8.75 L 2.359375 -5.15625 L 6.65625 -5.15625 L 6.65625 -8.75 L 7.84375 -8.75 L 7.84375 0 L 6.65625 0 L 6.65625 -4.171875 L 2.359375 -4.171875 L 2.359375 0 L 1.171875 0 Z M 1.171875 -8.75 "/>
</symbol>
</g>
</defs>
<g id="surface34069">
<rect x="0" y="0" width="300" height="300" style="fill:rgb(100%,100%,100%);fill-opacity:1;stroke:none;"/>
<path style="fill:none;stroke-width:1.2;stroke-linecap:butt;stroke-linejoin:miter;stroke:rgb(0%,0%,0%);stroke-opacity:1;stroke-miterlimit:10;" d="M 35.25 238.558594 L 37.332031 223.199219 "/>
<path style="fill:none;stroke-width:1.2;stroke-linecap:butt;stroke-linejoin:miter;stroke:rgb(100%,0%,0%);stroke-opacity:1;stroke-miterlimit:10;" d="M 37.332031 223.199219 L 39.414062 207.835938 "/>
<path style="fill:none;stroke-width:1.2;stroke-linecap:butt;stroke-linejoin:miter;stroke:rgb(100%,0%,0%);stroke-opacity:1;stroke-miterlimit:10;" d="M 39.414062 207.835938 L 53.757812 201.960938 "/>
<path style="fill:none;stroke-width:1.2;stroke-linecap:butt;stroke-linejoin:miter;stroke:rgb(0%,0%,0%);stroke-opacity:1;stroke-miterlimit:10;" d="M 53.757812 201.960938 L 68.101562 196.082031 "/>
<path style=" stroke:none;fill-rule:nonzero;fill:rgb(100%,100%,100%);fill-opacity:1;" d="M 34.414062 200.835938 L 44.414062 200.835938 L 44.414062 214.835938 L 34.414062 214.835938 Z M 34.414062 200.835938 "/>
<g style="fill:rgb(100%,0%,0%);fill-opacity:1;">
  <use xlink:href="#glyph0-1" x="34.414062" y="211.974609"/>
</g>
<path style="fill:none;stroke-width:1.2;stroke-linecap:butt;stroke-linejoin:miter;stroke:rgb(0%,0%,0%);stroke-opacity:1;stroke-miterlimit:10;" d="M 68.101562 196.082031 L 72.265625 165.359375 "/>
<path style="fill:none;stroke-width:1.2;stroke-linecap:butt;stroke-linejoin:miter;stroke:rgb(0%,0%,0%);stroke-opacity:1;stroke-miterlimit:10;" d="M 72.265625 165.359375 L 86.609375 159.484375 "/>
<path style="fill:none;stroke-width:1.2;stroke-linecap:butt;stroke-linejoin:miter;stroke:rgb(0%,0%,100%);stroke-opacity:1;stroke-miterlimit:10;" d="M 86.609375 159.484375 L 100.953125 153.605469 "/>
<path style="fill:none;stroke-width:1.2;stroke-linecap:butt;stroke-linejoin:miter;stroke:rgb(0%,0%,100%);stroke-opacity:1;stroke-miterlimit:10;" d="M 100.953125 153.605469 L 103.035156 138.246094 "/>
<path style="fill:none;stroke-width:1.2;stroke-linecap:butt;stroke-linejoin:miter;stroke:rgb(0%,0%,0%);stroke-opacity:1;stroke-miterlimit:10;" d="M 103.035156 138.246094 L 105.117188 122.882812 "/>
<path style=" stroke:none;fill-rule:nonzero;fill:rgb(100%,100%,100%);fill-opacity:1;" d="M 91.953125 146.605469 L 109.953125 146.605469 L 109.953125 160.605469 L 91.953125 160.605469 Z M 91.953125 146.605469 "/>
<g style="fill:rgb(0%,0%,100%);fill-opacity:1;">
  <use xlink:href="#glyph0-2" x="91.953125" y="157.744141"/>
  <use xlink:href="#glyph0-3" x="100.929688" y="157.744141"/>
</g>
<path style="fill:none;stroke-width:1.2;stroke-linecap:butt;stroke-linejoin:miter;stroke:rgb(0%,0%,0%);stroke-opacity:1;stroke-miterlimit:10;" d="M 105.117188 122.882812 L 92.855469 113.402344 "/>
<path style="fill:none;stroke-width:1.2;stroke-linecap:butt;stroke-linejoin:miter;stroke:rgb(0%,0%,100%);stroke-opacity:1;stroke-miterlimit:10;" d="M 92.855469 113.402344 L 80.59375 103.917969 "/>
<path style="fill:none;stroke-width:1.2;stroke-linecap:butt;stroke-linejoin:miter;stroke:rgb(0%,0%,0%);stroke-opacity:1;stroke-miterlimit:10;" d="M 107.125 115.21875 L 97.316406 107.628906 "/>
<path style="fill:none;stroke-width:1.2;stroke-linecap:butt;stroke-linejoin:miter;stroke:rgb(0%,0%,100%);stroke-opacity:1;stroke-miterlimit:10;" d="M 97.316406 107.628906 L 87.507812 100.042969 "/>
<path style="fill:none;stroke-width:1.2;stroke-linecap:butt;stroke-linejoin:miter;stroke:rgb(0%,0%,0%);stroke-opacity:1;stroke-miterlimit:10;" d="M 133.804688 111.128906 L 105.117188 122.882812 "/>
<path style="fill:none;stroke-width:1.2;stroke-linecap:butt;stroke-linejoin:miter;stroke:rgb(0%,0%,100%);stroke-opacity:1;stroke-miterlimit:10;" d="M 80.59375 103.917969 L 82.671875 88.558594 "/>
<path style="fill:none;stroke-width:1.2;stroke-linecap:butt;stroke-linejoin:miter;stroke:rgb(0%,0%,0%);stroke-opacity:1;stroke-miterlimit:10;" d="M 82.671875 88.558594 L 84.753906 73.195312 "/>
<path style=" stroke:none;fill-rule:nonzero;fill:rgb(100%,100%,100%);fill-opacity:1;" d="M 76.59375 96.917969 L 85.59375 96.917969 L 85.59375 110.917969 L 76.59375 110.917969 Z M 76.59375 96.917969 "/>
<g style="fill:rgb(0%,0%,100%);fill-opacity:1;">
  <use xlink:href="#glyph0-2" x="76.59375" y="108.056641"/>
</g>
<path style="fill:none;stroke-width:1.2;stroke-linecap:butt;stroke-linejoin:miter;stroke:rgb(0%,0%,0%);stroke-opacity:1;stroke-miterlimit:10;" d="M 84.753906 73.195312 L 99.097656 67.320312 "/>
<path style="fill:none;stroke-width:1.2;stroke-linecap:butt;stroke-linejoin:miter;stroke:rgb(0%,0%,100%);stroke-opacity:1;stroke-miterlimit:10;" d="M 99.097656 67.320312 L 113.441406 61.441406 "/>
<path style="fill:none;stroke-width:1.2;stroke-linecap:butt;stroke-linejoin:miter;stroke:rgb(0%,0%,0%);stroke-opacity:1;stroke-miterlimit:10;" d="M 90.390625 78.769531 L 101.863281 74.070312 "/>
<path style="fill:none;stroke-width:1.2;stroke-linecap:butt;stroke-linejoin:miter;stroke:rgb(0%,0%,100%);stroke-opacity:1;stroke-miterlimit:10;" d="M 101.863281 74.070312 L 113.339844 69.367188 "/>
<path style="fill:none;stroke-width:1.2;stroke-linecap:butt;stroke-linejoin:miter;stroke:rgb(0%,0%,100%);stroke-opacity:1;stroke-miterlimit:10;" d="M 113.441406 61.441406 L 125.703125 70.925781 "/>
<path style="fill:none;stroke-width:1.2;stroke-linecap:butt;stroke-linejoin:miter;stroke:rgb(0%,0%,0%);stroke-opacity:1;stroke-miterlimit:10;" d="M 125.703125 70.925781 L 137.96875 80.40625 "/>
<path style=" stroke:none;fill-rule:nonzero;fill:rgb(100%,100%,100%);fill-opacity:1;" d="M 109.441406 54.441406 L 118.441406 54.441406 L 118.441406 68.441406 L 109.441406 68.441406 Z M 109.441406 54.441406 "/>
<g style="fill:rgb(0%,0%,100%);fill-opacity:1;">
  <use xlink:href="#glyph0-2" x="109.441406" y="65.580078"/>
</g>
<path style="fill:none;stroke-width:1.2;stroke-linecap:butt;stroke-linejoin:miter;stroke:rgb(0%,0%,0%);stroke-opacity:1;stroke-miterlimit:10;" d="M 137.96875 80.40625 L 133.804688 111.128906 "/>
<path style="fill:none;stroke-width:1.2;stroke-linecap:butt;stroke-linejoin:miter;stroke:rgb(0%,0%,0%);stroke-opacity:1;stroke-miterlimit:10;" d="M 144.777344 84.460938 L 141.449219 109.035156 "/>
<path style="fill:none;stroke-width:1.2;stroke-linecap:butt;stroke-linejoin:miter;stroke:rgb(0%,0%,0%);stroke-opacity:1;stroke-miterlimit:10;" d="M 166.65625 68.652344 L 137.96875 80.40625 "/>
<path style="fill:none;stroke-width:1.2;stroke-linecap:butt;stroke-linejoin:miter;stroke:rgb(0%,0%,0%);stroke-opacity:1;stroke-miterlimit:10;" d="M 133.804688 111.128906 L 158.328125 130.09375 "/>
<path style="fill:none;stroke-width:1.2;stroke-linecap:butt;stroke-linejoin:miter;stroke:rgb(0%,0%,0%);stroke-opacity:1;stroke-miterlimit:10;" d="M 158.328125 130.09375 L 187.015625 118.339844 "/>
<path style="fill:none;stroke-width:1.2;stroke-linecap:butt;stroke-linejoin:miter;stroke:rgb(0%,0%,0%);stroke-opacity:1;stroke-miterlimit:10;" d="M 158.429688 122.171875 L 181.378906 112.765625 "/>
<path style="fill:none;stroke-width:1.2;stroke-linecap:butt;stroke-linejoin:miter;stroke:rgb(0%,0%,0%);stroke-opacity:1;stroke-miterlimit:10;" d="M 187.015625 118.339844 L 191.179688 87.617188 "/>
<path style="fill:none;stroke-width:1.2;stroke-linecap:butt;stroke-linejoin:miter;stroke:rgb(0%,0%,0%);stroke-opacity:1;stroke-miterlimit:10;" d="M 187.015625 118.339844 L 211.539062 137.308594 "/>
<path style="fill:none;stroke-width:1.2;stroke-linecap:butt;stroke-linejoin:miter;stroke:rgb(0%,0%,0%);stroke-opacity:1;stroke-miterlimit:10;" d="M 191.179688 87.617188 L 166.65625 68.652344 "/>
<path style="fill:none;stroke-width:1.2;stroke-linecap:butt;stroke-linejoin:miter;stroke:rgb(0%,0%,0%);stroke-opacity:1;stroke-miterlimit:10;" d="M 184.261719 91.492188 L 164.644531 76.320312 "/>
<path style="fill:none;stroke-width:1.2;stroke-linecap:butt;stroke-linejoin:miter;stroke:rgb(0%,0%,0%);stroke-opacity:1;stroke-miterlimit:10;" d="M 211.539062 137.308594 L 207.375 168.027344 "/>
<path style="fill:none;stroke-width:1.2;stroke-linecap:butt;stroke-linejoin:miter;stroke:rgb(0%,0%,0%);stroke-opacity:1;stroke-miterlimit:10;" d="M 218.351562 141.359375 L 215.019531 165.9375 "/>
<path style="fill:none;stroke-width:1.2;stroke-linecap:butt;stroke-linejoin:miter;stroke:rgb(0%,0%,0%);stroke-opacity:1;stroke-miterlimit:10;" d="M 240.226562 125.550781 L 211.539062 137.308594 "/>
<path style="fill:none;stroke-width:1.2;stroke-linecap:butt;stroke-linejoin:miter;stroke:rgb(0%,0%,0%);stroke-opacity:1;stroke-miterlimit:10;" d="M 207.375 168.027344 L 231.898438 186.996094 "/>
<path style="fill:none;stroke-width:1.2;stroke-linecap:butt;stroke-linejoin:miter;stroke:rgb(0%,0%,0%);stroke-opacity:1;stroke-miterlimit:10;" d="M 231.898438 186.996094 L 260.585938 175.242188 "/>
<path style="fill:none;stroke-width:1.2;stroke-linecap:butt;stroke-linejoin:miter;stroke:rgb(0%,0%,0%);stroke-opacity:1;stroke-miterlimit:10;" d="M 232 179.070312 L 254.953125 169.664062 "/>
<path style="fill:none;stroke-width:1.2;stroke-linecap:butt;stroke-linejoin:miter;stroke:rgb(0%,0%,0%);stroke-opacity:1;stroke-miterlimit:10;" d="M 231.898438 186.996094 L 229.816406 202.355469 "/>
<path style="fill:none;stroke-width:1.2;stroke-linecap:butt;stroke-linejoin:miter;stroke:rgb(100%,0%,0%);stroke-opacity:1;stroke-miterlimit:10;" d="M 229.816406 202.355469 L 227.734375 217.71875 "/>
<path style="fill:none;stroke-width:1.2;stroke-linecap:butt;stroke-linejoin:miter;stroke:rgb(0%,0%,0%);stroke-opacity:1;stroke-miterlimit:10;" d="M 260.585938 175.242188 L 264.75 144.519531 "/>
<path style="fill:none;stroke-width:1.2;stroke-linecap:butt;stroke-linejoin:miter;stroke:rgb(0%,0%,0%);stroke-opacity:1;stroke-miterlimit:10;" d="M 264.75 144.519531 L 240.226562 125.550781 "/>
<path style="fill:none;stroke-width:1.2;stroke-linecap:butt;stroke-linejoin:miter;stroke:rgb(0%,0%,0%);stroke-opacity:1;stroke-miterlimit:10;" d="M 257.835938 148.390625 L 238.214844 133.21875 "/>
<path style="fill:none;stroke-width:1.2;stroke-linecap:butt;stroke-linejoin:miter;stroke:rgb(100%,0%,0%);stroke-opacity:1;stroke-miterlimit:10;" d="M 227.734375 217.71875 L 213.390625 223.59375 "/>
<path style="fill:none;stroke-width:1.2;stroke-linecap:butt;stroke-linejoin:miter;stroke:rgb(0%,0%,0%);stroke-opacity:1;stroke-miterlimit:10;" d="M 213.390625 223.59375 L 199.046875 229.472656 "/>
<path style=" stroke:none;fill-rule:nonzero;fill:rgb(100%,100%,100%);fill-opacity:1;" d="M 222.734375 210.71875 L 232.734375 210.71875 L 232.734375 224.71875 L 222.734375 224.71875 Z M 222.734375 210.71875 "/>
<g style="fill:rgb(100%,0%,0%);fill-opacity:1;">
  <use xlink:href="#glyph0-1" x="222.734375" y="221.857422"/>
</g>
</g>
</svg>

<svg xmlns="http://www.w3.org/2000/svg" xmlns:xlink="http://www.w3.org/1999/xlink" width="300pt" height="300pt" viewBox="0 0 300 300"><defs><symbol overflow="visible"><path d="M.594 2.125V-8.47h6V2.126zm.672-.672h4.671V-7.78h-4.67zm0 0"/></symbol><symbol overflow="visible" id="a"><path d="M4.734-7.953c-.867 0-1.554.324-2.062.97-.5.635-.75 1.51-.75 2.624 0 1.094.25 1.965.75 2.61.508.637 1.195.953 2.062.953.852 0 1.532-.316 2.032-.953.507-.645.765-1.516.765-2.61 0-1.113-.257-1.988-.764-2.624-.5-.645-1.18-.97-2.032-.97zm0-.953c1.22 0 2.192.414 2.922 1.234.74.824 1.11 1.93 1.11 3.313 0 1.376-.37 2.477-1.11 3.298C6.926-.24 5.953.17 4.734.17c-1.23 0-2.214-.41-2.953-1.234C1.04-1.882.673-2.984.673-4.36c0-1.382.367-2.488 1.11-3.312.738-.82 1.722-1.234 2.952-1.234zm0 0"/></symbol><symbol overflow="visible" id="b"><path d="M1.172-8.75h1.594l3.89 7.313V-8.75h1.14V0H6.204L2.328-7.313V0H1.172zm0 0"/></symbol><symbol overflow="visible" id="c"><path d="M1.172-8.75H2.36v3.594h4.296V-8.75h1.188V0H6.656v-4.172H2.36V0H1.17zm0 0"/></symbol></defs><g><path fill="#fff" d="M0 0h300v300H0z"/><path d="M35.25 238.56l2.082-15.36" stroke-width="1.2" stroke="#000" stroke-miterlimit="10" fill="none"/><path d="M37.332 223.2l2.082-15.364M39.414 207.836l14.344-5.875" stroke-width="1.2" stroke="#f00" stroke-miterlimit="10" fill="none"/><path d="M53.758 201.96l14.344-5.878" stroke-width="1.2" stroke="#000" stroke-miterlimit="10" fill="none"/><path d="M34.414 200.836h10v14h-10zm0 0" fill="#fff"/><use xlink:href="#a" x="34.414" y="211.975" fill="#f00"/><path d="M68.102 196.082l4.164-30.723M72.266 165.36l14.343-5.876" stroke-width="1.2" stroke="#000" stroke-miterlimit="10" fill="none"/><path d="M86.61 159.484l14.343-5.88M100.953 153.605l2.082-15.36" stroke-width="1.2" stroke="#00f" stroke-miterlimit="10" fill="none"/><path d="M103.035 138.246l2.082-15.363" stroke-width="1.2" stroke="#000" stroke-miterlimit="10" fill="none"/><path d="M91.953 146.605h18v14h-18zm0 0" fill="#fff"/><g fill="#00f"><use xlink:href="#b" x="91.953" y="157.744"/><use xlink:href="#c" x="100.93" y="157.744"/></g><path d="M105.117 122.883l-12.262-9.48" stroke-width="1.2" stroke="#000" stroke-miterlimit="10" fill="none"/><path d="M92.855 113.402l-12.26-9.484" stroke-width="1.2" stroke="#00f" stroke-miterlimit="10" fill="none"/><path d="M107.125 115.22l-9.81-7.59" stroke-width="1.2" stroke="#000" stroke-miterlimit="10" fill="none"/><path d="M97.316 107.63l-9.808-7.587" stroke-width="1.2" stroke="#00f" stroke-miterlimit="10" fill="none"/><path d="M133.805 111.13l-28.688 11.753" stroke-width="1.2" stroke="#000" stroke-miterlimit="10" fill="none"/><path d="M80.594 103.918l2.078-15.36" stroke-width="1.2" stroke="#00f" stroke-miterlimit="10" fill="none"/><path d="M82.672 88.56l2.082-15.365" stroke-width="1.2" stroke="#000" stroke-miterlimit="10" fill="none"/><path d="M76.594 96.918h9v14h-9zm0 0" fill="#fff"/><use xlink:href="#b" x="76.594" y="108.057" fill="#00f"/><path d="M84.754 73.195l14.344-5.875" stroke-width="1.2" stroke="#000" stroke-miterlimit="10" fill="none"/><path d="M99.098 67.32l14.343-5.88" stroke-width="1.2" stroke="#00f" stroke-miterlimit="10" fill="none"/><path d="M90.39 78.77l11.473-4.7" stroke-width="1.2" stroke="#000" stroke-miterlimit="10" fill="none"/><path d="M101.863 74.07l11.477-4.703M113.44 61.44l12.263 9.486" stroke-width="1.2" stroke="#00f" stroke-miterlimit="10" fill="none"/><path d="M125.703 70.926l12.266 9.48" stroke-width="1.2" stroke="#000" stroke-miterlimit="10" fill="none"/><path d="M109.44 54.44h9v14h-9zm0 0" fill="#fff"/><use xlink:href="#b" x="109.441" y="65.58" fill="#00f"/><path d="M137.97 80.406l-4.165 30.723M144.777 84.46l-3.328 24.575M166.656 68.652L137.97 80.406M133.805 111.13l24.523 18.964M158.328 130.094l28.688-11.754M158.43 122.172l22.95-9.406M187.016 118.34l4.164-30.723M187.016 118.34l24.523 18.97M191.18 87.617l-24.524-18.965M184.262 91.492L164.645 76.32M211.54 137.31l-4.165 30.717M218.352 141.36l-3.332 24.577M240.227 125.55l-28.688 11.76M207.375 168.027l24.523 18.97M231.898 186.996l28.688-11.754M232 179.07l22.953-9.406M231.898 186.996l-2.082 15.36" stroke-width="1.2" stroke="#000" stroke-miterlimit="10" fill="none"/><path d="M229.816 202.355l-2.082 15.364" stroke-width="1.2" stroke="#f00" stroke-miterlimit="10" fill="none"/><path d="M260.586 175.242l4.164-30.722M264.75 144.52l-24.523-18.97M257.836 148.39l-19.62-15.17" stroke-width="1.2" stroke="#000" stroke-miterlimit="10" fill="none"/><path d="M227.734 217.72l-14.343 5.874" stroke-width="1.2" stroke="#f00" stroke-miterlimit="10" fill="none"/><path d="M213.39 223.594l-14.343 5.88" stroke-width="1.2" stroke="#000" stroke-miterlimit="10" fill="none"/><path d="M222.734 210.72h10v14h-10zm0 0" fill="#fff"/><use xlink:href="#a" x="222.734" y="221.857" fill="#f00"/></g></svg>
